X:039
T:Dark Girl Dressed in Blue (2) (polka)  
B:CRE3.075 (CailÃÂÃÂÃÂÃÂ­n Dubh i bhFeisteas Gorm 2)
F:file ID: cre.3/039dark_g2
R:polka
Q:220
M:2/4
L:1/8
K:D
FA Ad|Bd A>F|GB A>F|BE G/F/E/D/|
FA Ad|Bd A>F|GB A/B/A/G/|FD D2:|
FA A/B/d/e/| f>d ed|B/c/d/B/ A/B/A/F/| BE G/F/E/D/|
FA A/B/d/e/| f>d ed|B/c/d/B/ A/B/A/G/|FD D2:|

%%%

